img/github.svg

<?xml version="1.0" encoding="UTF-8"?>
<svg width="24px" height="24px" viewBox="0 0 24 24" version="1.1" xmlns="http://www.w3.org/2000/svg" xmlns:xlink="http://www.w3.org/1999/xlink">
    <!-- Generator: Sketch 55.2 (78181) - https://sketchapp.com -->
    <title>Icon/24/Github</title>
    <desc>Created with Sketch.</desc>
    <g id="Icon/24/Github" stroke="none" stroke-width="1" fill="#858B9A">
        <path d="M12,24 C5.372583,24 0,18.627417 0,12 C0,5.372583 5.372583,0 12,0 C18.627417,0 24,5.372583 24,12 C24,18.627417 18.627417,24 12,24 Z M14.1157895,15.4617647 C14.7498947,15.4617647 15.0176842,14.6031176 15.0176842,14.0757647 C15.0176842,13.5490588 14.7498947,12.6910588 14.1157895,12.6910588 C13.4816842,12.6910588 13.2138947,13.5490588 13.2138947,14.0757647 C13.2138947,14.6031176 13.4816842,15.4617647 14.1157895,15.4617647 Z M9.60631579,15.4617647 L9.60694737,15.4617647 C10.2416842,15.4617647 10.5101053,14.6031176 10.5101053,14.0757647 C10.5101053,13.5490588 10.2416842,12.6910588 9.60694737,12.6910588 C8.97284211,12.6910588 8.70568421,13.5490588 8.70568421,14.0757647 C8.70568421,14.6031176 8.97284211,15.4617647 9.60631579,15.4617647 Z M14.3418947,11.9974118 C15.4901053,11.9974118 16.1456842,12.9712353 16.1456842,14.0757647 C16.1456842,16.2841765 14.1726316,16.6238824 12.4534737,16.6238824 L11.2705263,16.6238824 C9.55136842,16.6238824 7.57831579,16.2841765 7.57831579,14.0757647 C7.57831579,12.9712353 8.23452632,11.9974118 9.38210526,11.9974118 C9.84694737,11.9974118 10.2978947,12.0841176 10.7564211,12.1488235 C11.1227368,12.2070588 11.4890526,12.2284118 11.8629474,12.2284118 C12.2355789,12.2284118 12.6018947,12.2070588 12.9682105,12.1488235 C13.4324211,12.0841176 13.8770526,11.9974118 14.3418947,11.9974118 Z M17.2932632,15.1938824 C17.6456842,14.4581765 17.7227368,13.6072941 17.7227368,12.8062353 C17.7227368,11.7515294 17.4404211,10.7485882 16.7646316,9.93329412 C16.8922105,9.54376471 16.9553684,9.13223529 16.9553684,8.72070588 C16.9553684,8.17911765 16.8353684,7.63882353 16.5953684,7.14705882 C15.4970526,7.14705882 14.7852632,7.62976471 13.9465263,8.30205882 C13.3054737,8.14158824 12.636,8.07041176 11.9747368,8.07041176 C11.2421053,8.07041176 10.5094737,8.14935294 9.79768421,8.32405882 C8.95263158,7.64464706 8.24084211,7.14641176 7.12926316,7.14641176 C6.88926316,7.63752941 6.76926316,8.17847059 6.76926316,8.72005882 C6.76926316,9.13158824 6.83242105,9.54958824 6.95873684,9.94817647 C6.28294737,10.7563529 6.00063158,11.7515294 6.00063158,12.8062353 C6.00063158,13.6072941 6.07768421,14.4659412 6.43768421,15.1938824 C7.40273684,17.1434706 10.1147368,17.3097647 11.9753684,17.3097647 C13.8069474,17.3097647 16.3648421,17.1221176 17.2932632,15.1938824 Z" id="Combined-Shape"></path>
    </g>
</svg>

<svg width="24" height="24" viewBox="0 0 24 24" xmlns="http://www.w3.org/2000/svg"><path d="M12 24C5.373 24 0 18.627 0 12S5.373 0 12 0s12 5.373 12 12-5.373 12-12 12zm2.116-8.538c.634 0 .902-.859.902-1.386 0-.527-.268-1.385-.902-1.385s-.902.858-.902 1.385.268 1.386.902 1.386zm-4.51 0c.636 0 .904-.859.904-1.386 0-.527-.268-1.385-.903-1.385-.634 0-.901.858-.901 1.385s.267 1.386.9 1.386zm4.736-3.465c1.148 0 1.804.974 1.804 2.079 0 2.208-1.973 2.548-3.693 2.548h-1.182c-1.72 0-3.693-.34-3.693-2.548 0-1.105.657-2.079 1.804-2.079.465 0 .916.087 1.374.152.367.058.733.08 1.107.08.373 0 .739-.022 1.105-.08.464-.065.91-.152 1.374-.152zm2.951 3.197c.353-.736.43-1.587.43-2.388 0-1.054-.283-2.057-.958-2.873.127-.39.19-.8.19-1.212a3.59 3.59 0 00-.36-1.574c-1.098 0-1.81.483-2.648 1.155a8.154 8.154 0 00-1.972-.232c-.733 0-1.466.08-2.177.254-.845-.68-1.557-1.178-2.669-1.178a3.588 3.588 0 00-.36 1.574c0 .412.063.83.19 1.228-.676.808-.958 1.804-.958 2.858 0 .801.077 1.66.437 2.388.965 1.95 3.677 2.116 5.537 2.116 1.832 0 4.39-.188 5.318-2.116z" fill="#858B9A"/></svg>
